icons/breezeDark/actions/22/edit-paste.svg

<svg viewBox="0 0 22 22" xmlns="http://www.w3.org/2000/svg"><path d="m7 3v2h-2-1v14h1 13v-1-13h-1-2v-2zm-2 3h1v2h10v-2h1v12h-12zm2 3v1h8v-1zm0 3v1h6v-1zm0 3v1h3v-1z" fill="#c0c0c0"/></svg>

<svg xmlns="http://www.w3.org/2000/svg" viewBox="0 0 22 22">
  <defs id="defs3051">
    <style type="text/css" id="current-color-scheme">
      .ColorScheme-Text {
        color:#c0c0c0;
      }
      </style>
  </defs>
 <path 
     style="fill:currentColor;fill-opacity:1;stroke:none" 
     d="M 7 3 L 7 5 L 5 5 L 4 5 L 4 19 L 5 19 L 18 19 L 18 18 L 18 5 L 17 5 L 15 5 L 15 3 L 7 3 z M 5 6 L 6 6 L 6 8 L 16 8 L 16 6 L 17 6 L 17 18 L 5 18 L 5 6 z M 7 9 L 7 10 L 15 10 L 15 9 L 7 9 z M 7 12 L 7 13 L 13 13 L 13 12 L 7 12 z M 7 15 L 7 16 L 10 16 L 10 15 L 7 15 z "
     class="ColorScheme-Text"
     />
</svg>
